X:64
T:Flagg Hornpipe
M:C|
Q:1/2=100
L:1/8
K:G
%%MIDI channel 1
%%MIDI program 72
%%MIDI transpose 8
%%MIDI grace 1/8
%%MIDI ratio 3 1
BA|GDGB dBGB|cece dBGB|c2 ec B2 dB|c2 A2 A2 BA|GDGB dBGB|
cece dBGB|efge dcBA|G2 G2 G2::(3(def)|gdBd Gdcd|gdBd BdBd|
c2 ec B2 dB|c2 A2 A2 BA|GDGB dBGB|cece dBGB|efge dcBA|G2 G2 G2:|

